static/assets/images/exchanges/retro.svg

<svg width="256" height="256" viewBox="0 0 256 256" fill="none" xmlns="http://www.w3.org/2000/svg">
<path d="M0.00289709 128C0.00289709 57.309 57.1164 0 127.567 0C198.019 0 255.126 57.3061 255.126 128C255.126 198.694 198.016 256 127.565 256C57.1106 256 0 198.694 0 128H0.00289709ZM27.9093 128C27.9093 183.228 72.5282 227.998 127.565 227.998C182.607 227.998 227.223 183.228 227.223 128.003C227.223 72.7717 182.607 28.0021 127.567 28.0021C72.5253 28.0021 27.9122 72.7717 27.9122 128H27.9093Z" fill="#F0E7D8"/>
<path d="M125.979 159.916L116.509 142.21L115.55 142.37V184.548H73.1963V71.8622H145.394C171.064 71.8622 188.229 86.5112 188.229 106.472C188.229 124.664 174.428 139.313 151.009 139.313C146.996 139.313 143.308 138.993 139.936 138.351L139.293 139.482C148.439 147.209 154.696 149.621 162.396 149.621C172.026 149.621 181.328 145.593 185.983 139.479L191.282 182.144C185.983 184.722 177.481 186.974 172.032 186.974C150.533 186.974 137.384 181.825 125.987 159.934L125.979 159.916ZM149.398 116.292C149.398 109.527 144.102 105.668 136.399 105.668H115.541V122.252C123.241 125.794 128.858 127.401 135.432 127.401C143.132 127.401 149.392 123.057 149.392 116.292H149.398Z" fill="#F0E7D8"/>
</svg>

<svg xmlns="http://www.w3.org/2000/svg" fill="none" viewBox="0 0 256 256"><path fill="#F0E7D8" d="M.003 128C.003 57.309 57.116 0 127.567 0c70.452 0 127.559 57.306 127.559 128s-57.11 128-127.561 128C57.111 256 0 198.694 0 128zm27.906 0c0 55.228 44.62 99.998 99.656 99.998 55.042 0 99.658-44.77 99.658-99.995 0-55.231-44.616-100-99.656-100-55.042 0-99.655 44.769-99.655 99.997z"/><path fill="#F0E7D8" d="m125.979 159.916-9.47-17.706-.959.16v42.178H73.196V71.862h72.198c25.67 0 42.835 14.65 42.835 34.61 0 18.192-13.801 32.841-37.22 32.841-4.013 0-7.701-.32-11.073-.962l-.643 1.131c9.146 7.727 15.403 10.139 23.103 10.139 9.63 0 18.932-4.028 23.587-10.142l5.299 42.665c-5.299 2.578-13.801 4.83-19.25 4.83-21.499 0-34.648-5.149-46.045-27.04zm23.419-43.624c0-6.765-5.296-10.624-12.999-10.624h-20.858v16.584c7.7 3.542 13.317 5.149 19.891 5.149 7.7 0 13.96-4.344 13.96-11.109z"/></svg>
